!!!ONB: MCCC : IJB0066_06 : Extracted Monophonic Melody
!!!COM: Bach, Johann Sebastian
!!!OPR: Cello Suite No.4
!!!OMV: 6
!!!SCT: BWV 1010
!!!ODT: 1717///
**kern
*thru
*Icello
*>A
*clefF4
*k[b-e-a-]
*E-:
*M4/4
4E-
=1
4E-
4F
4F
4D
=2
8E-
8F
4G
4G
4E-
=3
4AA-
4F
4BB-
4D
=4
4E-
4BB-
4EE-
*>A
*clefF4
*k[b-e-a-]
*E-:
*M4/4
4E-
=1
4E-
4F
4F
4D
=2
8E-
8F
4G
4G
4E-
=3
4AA-
4F
4BB-
4D
=4
4E-
4BB-
4EE-
*>B
4B-
=5
4B-
4c
4c
4B-
=6
8A-
8G
4A-
4F
4A-
=7
4B-
4A-
4A-
4G
=8
8F
8E-
8D
8C
8BB-
8AA-
4E-
=9
4E-
4F
4F
4D
=10
8E-
8F
4G
4G
4E-
=11
4AA-
4F
4BB-
4D
=12
2.E-
*>B
4B-
=5
4B-
4c
4c
4B-
=6
8A-
8G
4A-
4F
4A-
=7
4B-
4A-
4A-
4G
=8
8F
8E-
8D
8C
8BB-
8AA-
4E-
=9
4E-
4F
4F
4D
=10
8E-
8F
4G
4G
4E-
=11
4AA-
4F
4BB-
4D
=12
2.E-
==
*-
